!!!COM: Haydn, Franz Joseph
!!!OTL: String Quartet in D Major
!!!OPS: Opus 20
!!!ONM: No. 4
!!!OMD: Presto e scherzando
!!!OMV: 4
!!!SCT: H III:34
!!!SCA: Thematisch-bibliographisches Werkevererzeichnis (A. van Hoboken)
!!!YOR: Trautwein Edition
!!!ENC: Frances Bennion
!!!CDT: 1732/3/31/-1809/5/31/
!!!CNT: Oesterreich
!!!YEC: Copyright (c) 1994, 2000 Center for Computer Assisted Research in the Humanities
!!!YEM: Rights to all derivative editions reserved.
!!!YEM: Refer to licensing agreement for further details.
!!!YEN: United States of America
**kern	**kern	**kern	**kern
*k[f#c#]	*k[f#c#]	*k[f#c#]	*k[f#c#]
*D:	*D:	*D:	*D:
*clefF4	*clefC3	*clefG	*clefG
*M4/4	*M4/4	*M4/4	*M4/4
2..r	2..r	2..r	2..r
8r	8r	8r	8aa
=1	=1	=1	=1
1r	1r	1r	16ff#
.	.	.	16gg
.	.	.	16aa
.	.	.	16ff#
.	.	.	8gg
.	.	.	8ee
.	.	.	8cc#
.	.	.	16b
.	.	.	16a
.	.	.	8b
.	.	.	8cc#
=2	=2	=2	=2
2f#	2a	4dd	4dd
.	.	4cc	4dd#
4g	4g	4b	4ee
4r	4r	4r	8r
.	.	.	8ff#
=3	=3	=3	=3
1r	1r	1r	16gg
.	.	.	16aa
.	.	.	16bb
.	.	.	16gg
.	.	.	8ee
.	.	.	8gg
.	.	.	8ff#
.	.	.	16ee
.	.	.	16dd
.	.	.	8cc#
.	.	.	8dd
=4	=4	=4	=4
4A	4e	4c#	4ee
4B	4d	4d	4g#
4c#	4c#	4e	4a
4r	4r	4r	8r
.	.	.	8dd
=5	=5	=5	=5
2r	2r	2r	16ee
.	.	.	16ff#
.	.	.	16gg
.	.	.	16ee
.	.	.	8ff#
.	.	.	8ddd
8F#	8a	8dd	24ddd
.	.	.	24ccc#
.	.	.	24bb
8r	8r	8r	8aa
8F#	8a	8dd	24ddd
.	.	.	24ccc#
.	.	.	24bb
8r	8r	8r	8aa
=6	=6	=6	=6
8G	8d	8b	24bb
.	.	.	24aa
.	.	.	24gg
8r	8r	8r	8ff#
8A	8c#	8g	24aa
.	.	.	24gg
.	.	.	24ff#
8r	8r	8r	8ee
4D	4d	4f#	4dd
4r	4r	4r	8r
.	.	.	8a
=7	=7	=7	=7
4A	4a	4a	4aa
8.A	8.a	8.a	8.aa
16G#	16g#	16g#	16gg#
4A	4a	4a	4aa
4E	4e	4e	4ee
=8	=8	=8	=8
2F	2f	2f	2ff
8C#	8c#	8c#	8cc#
4.r	4.r	4.r	8r
.	.	.	16ff 16cc#
.	.	.	16ff 16cc#
.	.	.	16ff 16cc#
.	.	.	16ff 16cc#
=9	=9	=9	=9
2..r	2..r	2..r	8cc# 8ff
.	.	.	8r
.	.	.	16ff 16cc#
.	.	.	16ff 16cc#
.	.	.	16ff 16cc#
.	.	.	16ff 16cc#
.	.	.	8cc# 8ff
.	.	.	8r
.	.	.	16ff
.	.	.	16cc#
8c#	8cc#	8cc#	16ff
.	.	.	16cc#
=10	=10	=10	=10
4d	4dd	4dd	4dd
4A	4a	4a	4a
4.F	4.f	4.f	4.f
16E	16e	16e	16e
16D	16d	16d	16d
=11	=11	=11	=11
4C#	4c#	4c#	4c#
4A	4a	4a	4a
4AA	4A	4A	4A
4r	4r	4r	8r
.	.	.	8aa
=12	=12	=12	=12
1r	1r	1r	16ff#
.	.	.	16gg
.	.	.	16aa
.	.	.	16ff#
.	.	.	8gg
.	.	.	8ee
.	.	.	8cc#
.	.	.	16b
.	.	.	16a
.	.	.	8b
.	.	.	8cc#
=13	=13	=13	=13
2f#	2a	4dd	4dd
.	.	4cc	4dd#
4g	4g	4b	4ee
4r	4r	4r	4r
=14	=14	=14	=14
2g	2g	2.b	4ee
.	.	.	4ee#
4d#	4a	.	4ff#
8r	8r	8r	8r
8d#	[8b	8a	8ff#
=15	=15	=15	=15
4e	4b]	4g	4gg
8r	8r	8r	8r
8e	8ee	8b	8gg
4d	4b	4ee	4gg#
8r	8r	8r	8r
8d	8e	8b	8gg#
=16	=16	=16	=16
4c#	4A	4cc#	4aa
8r	8r	8r	8r
8c#	4.A	8ee	8gg
8d	.	4dd	8ff#
8F#	.	.	8aa#
8G	8r	8r	8bb
8r	8d#	8ff#	8aa
=17	=17	=17	=17
8r	4e	4ee	8gg
8F#	.	.	8aa#
8G	8r	8r	8bb
4r	8d#	8ff#	8aa
.	4e	4ee	8gg
8F#	.	.	8aa#
8G	8r	8r	8bb
8E	8b	8ee	8gg
=18	=18	=18	=18
2A	2a	2dd	2ff#
4AA	4A	4cc#	4ee
4r	4r	8r	8r
.	.	8cc#	8ee
=19	=19	=19	=19
2..r	4.r	16a	16cc#
.	.	16b	16dd
.	.	16cc#	16ee
.	.	16a	16cc#
.	.	8b	8dd
.	8e	8g#	8b
.	16c#	[2e	16a
.	16d	.	16b
.	16e	.	16cc#
.	16c#	.	16a
.	8d	.	8b
8E	8B	.	8g#
=20	=20	=20	=20
16C#	16A	8e]	8a
16D	16B	.	.
16E	16c#	8A	4ee
16C#	16A	.	.
8D	8B	8G#	.
8BB	8G#	8d	4ee
16AA	8A	16c#	.
16BB	.	16d	.
16C#	8a	16e	4ee
16AA	.	16c#	.
8BB	8g#	8d	.
8GG#	8b	8B	8ee
=21	=21	=21	=21
8AA	8e	8c#	16cc#
.	.	.	16dd
8AA	8cc#	8ee	16ee
.	.	.	16cc#
8AA	8cc#	8ee	16a
.	.	.	16b
8AA	8cc#	8ee	16cc#
.	.	.	16a
8AA	8c#	8e	4e
8AA	8cc#	8ee	.
8AA	8cc#	8ee	4r
8AA	8cc#	8ee	.
=22	=22	=22	=22
8AA	8c	8e	16cc
.	.	.	16dd
8AA	8cc	8ee	16ee
.	.	.	16cc
8AA	8cc	8ee	16a
.	.	.	16b
8AA	8cc	8ee	16cc
.	.	.	16a
8AA	8c	8e	4e
8AA	8cc	8ee	.
8AA	8cc	8ee	4r
8AA	8cc	8ee	.
=23	=23	=23	=23
8FF	8cc	8a 8ff	16aa
.	.	.	16gg#
8FF	8cc	8ff 8a	16aa
.	.	.	16gg#
8FF	8cc	8ff 8a	16aa
.	.	.	16gg#
8FF	8cc	8ff 8a	16aa
.	.	.	16gg#
4FF	4cc	4ff 4a	4aa
8.F	8.c	8.a 8.f	8.a 8.f
16F	16c	16f 16a	16f 16a
=24	=24	=24	=24
4F	4c	4a 4f	4a 4f
8.E	8.c	8.g	8.bb- 8.cc
16E	16c	16g	16bb- 16cc
4E	4c	4g	4bb- 4cc
8.E	8.c	8.g	8.b-
16E	16c	16g	16b-
=25	=25	=25	=25
4E	4c	4g	4b-
2r	2r	2r	2r
8.F	8.c	8.f	8.a
16F	16c	16f	16a
=26	=26	=26	=26
4F	4c	4f	4a
2r	2r	2r	2r
8.F	8.c	8.d#	8.a
16F	16c	16d#	16a
=27	=27	=27	=27
4F	4c	4d#	[6..a
2r	2r	2r	.
.	.	.	48a]
.	.	.	16g#
.	.	.	16a
.	.	.	16b
.	.	.	8cc
.	.	.	8cc
4FF	4A	4d#	8b
.	.	.	8a
=28	=28	=28	=28
4EE	4B	4e	8g#
.	.	.	8a
2r	2r	2r	8b
.	.	.	8cc
.	.	.	4.b
4FF	4A	4d#	.
.	.	.	8a
=29	=29	=29	=29
4EE	4B	4e	8g#
.	.	.	8a
2r	2r	2r	8b
.	.	.	8cc
.	.	.	4.b
4FF	4A	4d#	.
.	.	.	8a
=30	=30	=30	=30
4EE	4B	4e	8g#
.	.	.	8a
2r	2r	2r	8b
.	.	.	8cc
.	.	.	4.b
8r	8r	8r	.
8E	8e	8e	8e
=31	=31	=31	=31
16D	16d	16d	16d
16C#	16c#	16c#	16c#
16D	16d	16d	16d
16C#	16c#	16c#	16c#
16D	16d	16d	16d
16C#	16c#	16c#	16c#
16D	16d	16d	16d
16C#	16c#	16c#	16c#
16D	16d	16d	16d
16C#	16c#	16c#	16c#
16D	16d	16d	16d
16C#	16c#	16c#	16c#
16D	16d	16d	16d
16C#	16c#	16c#	16c#
16D	16d	16d	16d
16C#	16c#	16c#	16c#
=32	=32	=32	=32
4D	4d	4d	4d
8.GG#	8.G#	8.G#	8.G#
16GG#	16G#	16G#	16G#
2GG#	4.G#	4.G#	4.G#
.	8e	8b	8dd
=33	=33	=33	=33
4AA	2e	4a	16cc#
.	.	.	16dd
.	.	.	16ee
.	.	.	16cc#
4C#	.	4r	16a
.	.	.	16b
.	.	.	16cc#
.	.	.	16a
[2D	4A	16f#	4f#
.	.	16g#	.
.	.	16a	.
.	.	16f#	.
.	4A#	16d	4r
.	.	16e	.
.	.	16f#	.
.	.	16d	.
=34	=34	=34	=34
4D]	2.B	4B	16dd
.	.	.	16ee
.	.	.	16ff#
.	.	.	16dd
4D#	.	4r	16b
.	.	.	16cc#
.	.	.	16dd
.	.	.	16b
[2E	.	16g#	4g#
.	.	16a	.
.	.	16b	.
.	.	16g#	.
.	4B#	16e	4r
.	.	16f#	.
.	.	16g#	.
.	.	16e	.
=35	=35	=35	=35
4E]	2.c#	4c#	16ee
.	.	.	16ff#
.	.	.	16gg#
.	.	.	16ee
4E#	.	4r	16cc#
.	.	.	16dd
.	.	.	16ee
.	.	.	16cc#
[2F#	.	16a	4a
.	.	16b	.
.	.	16cc#	.
.	.	16a	.
.	8c#	16f#	4r
.	.	16g#	.
.	16B	16a	.
.	16c#	16f#	.
=36	=36	=36	=36
4F#]	2.d	4d	16ff#
.	.	.	16gg#
.	.	.	16aa
.	.	.	16ff#
4F#	.	4r	16dd
.	.	.	16ee
.	.	.	16ff#
.	.	.	16dd
[2G#	.	16b	4b
.	.	16cc#	.
.	.	16dd	.
.	.	16b	.
.	4d#	16g#	4r
.	.	16a	.
.	.	16b	.
.	.	16g#	.
=37	=37	=37	=37
4G#]	2e	4e	16gg#
.	.	.	16aa
.	.	.	16bb
.	.	.	16gg#
4G#	.	2r	16ee
.	.	.	16ff#
.	.	.	16gg#
.	.	.	16ee
16A	16cc#	.	4cc#
16B	16dd	.	.
16c#	16ee	.	.
16A	16cc#	.	.
16F#	16a	4cc#	4aa
16G#	16b	.	.
16A	16cc#	.	.
16F#	16a	.	.
=38	=38	=38	=38
16D	16f#	2ff#	2.ddd
16E	16g#	.	.
16F#	16a	.	.
16D	16f#	.	.
16BB	16d	.	.
16C#	16e	.	.
16D	16f#	.	.
16BB	16d	.	.
16GG#	16B	[2ee	.
16AA	16c#	.	.
16BB	16d	.	.
16GG#	16B	.	.
16AA	16c#	.	4ccc#
16BB	16d	.	.
16C#	16e	.	.
16AA	16c#	.	.
=39	=39	=39	=39
8GG#	8B	2ee]	4ddd
8G#	8b	.	.
8A	8cc#	.	4ccc#
8AA	8e	.	.
4D	4f#	4dd	16bb
.	.	.	16ccc#
.	.	.	16ddd
.	.	.	16bb
8r	8r	4r	8ee
8E	8B	.	8gg#
=40	=40	=40	=40
8AA	4c#	8aa	4a
8A	.	8a	.
8C#	4C#	2.r	8a
8A	.	.	8a
8D	4D	.	8b
8A	.	.	8b
8E	4E	.	8cc#
8A	.	.	8cc#
=41	=41	=41	=41
8F#	4F#	8aa	8dd
8A	.	8a	8dd
8E	4E	2.r	8cc#
8A	.	.	8cc#
8F#	4F#	.	8dd
8A	.	.	8dd
8E	4E	.	8cc#
8A	.	.	8cc#
=42	=42	=42	=42
8D	4D	8aa	8b
8A	.	8a	8b
8C#	4C#	2.r	8a
8A	.	.	8a
8D	4D	.	8b
8A	.	.	8b
8E	4E	.	8e
8G#	.	.	8e
=43	=43	=43	=43
8AA	4A	8aa	8a
8A	.	8a	8r
8C#	8r	8r	16a
.	.	.	16b
8A	8c#	8aa	16cc#
.	.	.	16a
8D	8r	8r	16b
.	.	.	16cc#
8A	8d	8aa	16dd
.	.	.	16b
8E	8r	8r	16cc#
.	.	.	16dd
8A	8e	8aa	16ee
.	.	.	16cc#
=44	=44	=44	=44
8F#	8r	8r	16dd
.	.	.	16ee
8A	8f#	8aa	16ff#
.	.	.	16dd
8E	8r	8r	16cc#
.	.	.	16dd
8A	8e	8aa	16ee
.	.	.	16cc#
8F#	8r	8r	16dd
.	.	.	16ee
8A	8f#	8aa	16ff#
.	.	.	16dd
8E	8r	8r	16cc#
.	.	.	16dd
8A	8e	8aa	16ee
.	.	.	16cc#
=45	=45	=45	=45
8D	8r	8r	16b
.	.	.	16cc#
8A	8d	8aa	16dd
.	.	.	16b
8C#	8r	8r	16a
.	.	.	16b
8A	8c#	8aa	16cc#
.	.	.	16a
8D	8r	8r	16b
.	.	.	16cc#
8A	8d	8aa	16dd
.	.	.	16b
8E	8r	8r	16g#
.	.	.	16a
8EE	8e	8aa	16b
.	.	.	16g#
=46	=46	=46	=46
4AA	4A	8r	8a
.	.	8aa	8r
2.r	2.r	8cc#	8ee
.	.	8b#	8dd#
.	.	8cc#	8ee
.	.	8b#	8dd#
.	.	8cc#	8ee
.	.	8b#	8dd#
=47	=47	=47	=47
8A	8a	8cc#	8ee
8AA	8A	8r	8r
4r	4r	16cc#	16ee
.	.	16b#	16dd#
.	.	16cc#	16ee
.	.	16b#	16dd#
8A	8a	8cc#	8ee
8AA	8A	8r	8r
4r	4r	8cc#	8ee
.	.	8dd#	8ff#
=48	=48	=48	=48
2r	2r	8ee	8gg
.	.	8dd#	8ff#
.	.	8ee	8gg
.	.	8dd#	8ff#
8A	8a	8ee	8gg
8AA	8A	8r	8r
4r	4r	16ee	16gg
.	.	16dd#	16ff#
.	.	16ee	16gg
.	.	16dd#	16ff#
=49	=49	=49	=49
8A	8a	8ee	8gg
8AA	8A	2..r	8r
2.r	2.r	.	16a
.	.	.	16b
.	.	.	16cc#
.	.	.	16b
.	.	.	16a
.	.	.	16b
.	.	.	16cc#
.	.	.	16dd
.	.	.	16ee
.	.	.	16ff#
.	.	.	16gg
.	.	.	16aa
=50	=50	=50	=50
8A#	2r	2ee	2gg
8A#	.	.	.
8A#	.	.	.
8A#	.	.	.
8A#	2f#	4dd	4ff#
8A#	.	.	.
8A#	.	4cc#	4ee
8A#	.	.	.
=51	=51	=51	=51
8B	2f#	4b	2.dd
8B	.	.	.
8B	.	4f#	.
8B	.	.	.
8B	2d	[2g	.
8B	.	.	.
8B	.	.	8ee
8B	.	.	8b
=52	=52	=52	=52
8A	2.e	2.g]	4dd
8A	.	.	.
8A	.	.	4cc
8A	.	.	.
8A	.	.	[2cc
8A	.	.	.
8A	8f#	8a	.
8A	8g	8e	.
=53	=53	=53	=53
8d	8f#	[1f#	8cc]
8d	8a	.	8ccc
8d	8a	.	8aa
8d	8a	.	8ff#
8d	[2a	.	4dd
8d	.	.	.
8d	.	.	4cc
8d	.	.	.
=54	=54	=54	=54
8d#	1a]	1f#]	4cc
8d#	.	.	.
8d#	.	.	4b
8d#	.	.	.
8d#	.	.	[2b
8d#	.	.	.
8d#	.	.	.
8d#	.	.	.
=55	=55	=55	=55
8e	4g	4g	4b]
8e	.	.	.
8e	2e	4ee	4gg
8e	.	.	.
8e	.	4cc#	4ee
8e	.	.	.
8e#	4e#	4b	4dd
8e#	.	.	.
=56	=56	=56	=56
4f#	4f#	4a#	4cc#
2r	4r	4r	16ff#
.	.	.	16ee#
.	.	.	16ff#
.	.	.	16ee#
.	4f#	16f#	[2ff#
.	.	16g#	.
.	.	16a#	.
.	.	16f#	.
8r	4e	16a#	.
.	.	16b	.
8f#	.	16cc#	.
.	.	16a#	.
=57	=57	=57	=57
16d	4d	4b	4ff#]
16e	.	.	.
16f#	.	.	.
16d	.	.	.
8e	4A#	4cc#	16ff#
.	.	.	16ee#
8c#	.	.	16ff#
.	.	.	16ee#
8A#	8c#	4.ee	4.ff#
16G#	16B	.	.
16F#	16A#	.	.
8G#	8B	.	.
8A#	8c#	8f#	8ee
=58	=58	=58	=58
4B	4d	4f#	16dd
.	.	.	16ee
.	.	.	16ff#
.	.	.	16dd
2r	4r	4r	16b
.	.	.	16cc#
.	.	.	16dd
.	.	.	16b
.	4b	16b	[2bb
.	.	16cc#	.
.	.	16dd#	.
.	.	16b	.
8r	4a	16dd#	.
.	.	16ee	.
8B	.	16ff#	.
.	.	16dd#	.
=59	=59	=59	=59
16G	4g	4ee	4bb]
16A	.	.	.
16B	.	.	.
16G	.	.	.
8A	4d#	4ff#	16bb
.	.	.	16aa#
8F#	.	.	16bb
.	.	.	16aa#
8D#	8f#	4.aa	4.bb
16C#	16e	.	.
16BB	16d#	.	.
8C#	8e	.	.
8D#	8f#	8b	8aa
=60	=60	=60	=60
4E	4g	4b	16gg
.	.	.	16aa
.	.	.	16bb
.	.	.	16gg
2r	4r	4r	16ee
.	.	.	16ff#
.	.	.	16gg
.	.	.	16ee
.	4ee	16e	[2eee
.	.	16f#	.
.	.	16g#	.
.	.	16e	.
8r	4dd	16g#	.
.	.	16a	.
8e	.	16b	.
.	.	16g#	.
=61	=61	=61	=61
16c#	4cc#	4a	4eee]
16d	.	.	.
16e	.	.	.
16c#	.	.	.
8d	4g#	4b	16eee
.	.	.	16ddd#
8B	.	.	16eee
.	.	.	16ddd#
8G#	8b	4.dd	4.eee
16F#	16a	.	.
16E	16g#	.	.
8F#	8a	.	.
8G#	8b	8e	8dd
=62	=62	=62	=62
4A	4cc#	4e	16cc#
.	.	.	16dd
.	.	.	16ee
.	.	.	16cc#
2r	4r	4r	16a
.	.	.	16b
.	.	.	16cc#
.	.	.	16a
.	4a	16a	[2aa
.	.	16b	.
.	.	16cc#	.
.	.	16a	.
8r	4g	16cc#	.
.	.	16dd	.
8A	.	16ee	.
.	.	16cc#	.
=63	=63	=63	=63
16F#	4f#	4dd	4aa]
16G	.	.	.
16A	.	.	.
16F#	.	.	.
8G	4c#	4ee	16aa
.	.	.	16gg#
8E	.	.	16aa
.	.	.	16gg#
8C#	8e	4.gg	4.aa
16BB	16d	.	.
16AA	16c#	.	.
8BB	8d	.	.
8C#	8e	8a	8gg
=64	=64	=64	=64
4D	4f#	4a	16ff#
.	.	.	16gg
.	.	.	16aa
.	.	.	16ff#
2r	4r	4r	16dd
.	.	.	16ee
.	.	.	16ff#
.	.	.	16dd
.	4dd	16d	[2ddd
.	.	16e	.
.	.	16f#	.
.	.	16d	.
8r	4cc	16f#	.
.	.	16g	.
8d	.	16a	.
.	.	16f#	.
=65	=65	=65	=65
16B	4b	4g	4ddd]
16c	.	.	.
16d	.	.	.
16B	.	.	.
8c	4f#	4a	16ddd
.	.	.	16ccc#
8A	.	.	16ddd
.	.	.	16ccc#
8F#	8a	4.cc	2ddd
16E	16g	.	.
16D	16f#	.	.
8E	8g	.	.
8F#	8a	8d	.
=66	=66	=66	=66
8G	8b	8d	16bb
.	.	.	16ccc
8G	8d	8b	16ddd
.	.	.	16bb
8G	8d	8b	16gg
.	.	.	16aa
8G	8d	8b	16bb
.	.	.	16gg
8G	8d	8b	8dd
8G	8d	8b	4.r
8G	8d	8b	.
8G	8d	8b	.
=67	=67	=67	=67
8G	8d	8b	16b
.	.	.	16cc#
8G	8B	8d	16dd
.	.	.	16b
8G	8B	8d	16g
.	.	.	16a
8G	8B	8d	16b
.	.	.	16g
8G	8B	8d	4f#
8G	8G	8B	.
8G	8G	8B	4e#
8G	8G	8B	.
=68	=68	=68	=68
4F#	4F#	4A#	4f#
8.F#	8.c#	8.a#	8.ff#
16F#	16c#	16a#	16ff#
4F#	4c#	4a#	4ff#
8.E	8.c#	8.a#	8.gg
16E	16c#	16a#	16gg
=69	=69	=69	=69
4E	4c#	4a#	4gg
2r	2r	2r	2r
8.E	8.c#	8.g	8.a#
16E	16c#	16g	16a#
=70	=70	=70	=70
4E	4c#	4g	4a#
2.r	2.r	2.r	2.r
=71	=71	=71	=71
4r	4.r	1r	4r
8D	.	.	8b
8B	8d	.	8b
8E	8r	.	8cc#
8B	8e	.	8cc#
8F#	8r	.	8f#
8A#	8f#	.	8f#
=72	=72	=72	=72
8G	8r	8bb	8b
8B	8g	8b	8b
8D	8r	2.r	16b
.	.	.	16cc#
8B	8d	.	16dd
.	.	.	16b
8E	8r	.	16cc#
.	.	.	16dd
8B	8e	.	16ee
.	.	.	16cc#
8F#	8r	.	8f#
8c#	8f#	.	8a#
=73	=73	=73	=73
8BB	8r	8bb	4b
8B	8B	8b	.
8D	8r	2.r	8b
8B	8d	.	8b
8E	8r	.	8cc#
8B	8e	.	8cc#
8F#	8r	.	8f#
8A#	8f#	.	8f#
=74	=74	=74	=74
8G	8r	8bb	8b
8B	8g	8b	8b
8D	8r	2.r	16b
.	.	.	16cc#
8B	8d	.	16dd
.	.	.	16b
8E	8r	.	16cc#
.	.	.	16dd
8B	8e	.	16ee
.	.	.	16cc#
8F#	8r	.	8f#
8c#	8f#	.	8a#
=75	=75	=75	=75
[1B	[1B	8bb	4b
.	.	8b	.
.	.	2r	4cc#
.	.	.	[2dd
.	.	4f#	.
=76	=76	=76	=76
4B]	4B]	2.g	4dd]
4B#	4B#	.	4dd#
[2c#	[2c#	.	[2ee
.	.	4g#	.
=77	=77	=77	=77
2c#]	2c#]	2.a	4ee]
.	.	.	4ee#
2d	2d	.	[2ff#
.	.	4a#	.
=78	=78	=78	=78
2d#	2d#	2.b	4ff#]
.	.	.	8aa
.	.	.	8gg
4e	4e	.	[2gg
4d	4d	8b-	.
.	.	8a	.
=79	=79	=79	=79
4c#	4c#	8a	8gg]
.	.	8r	8r
4r	4r	16ee	16gg
.	.	16dd#	16ff#
.	.	16ee	16gg
.	.	16dd#	16ff#
4c#	4A	8ee	8gg
.	.	8r	8r
4r	4r	16ee	16gg
.	.	16dd#	16ff#
.	.	16ee	16gg
.	.	16dd#	16ff#
=80	=80	=80	=80
4c#	4A	8ee	8gg
.	.	2..r	8r
2.r	2.r	.	16a
.	.	.	16b
.	.	.	16cc#
.	.	.	16b
.	.	.	16a
.	.	.	16b
.	.	.	16cc#
.	.	.	16dd
.	.	.	16ee
.	.	.	16ff#
.	.	.	16gg
.	.	.	16aa
=81	=81	=81	=81
1r	1r	1r	16ff#
.	.	.	16gg
.	.	.	16aa
.	.	.	16ff#
.	.	.	8gg
.	.	.	8ee
.	.	.	8cc#
.	.	.	16b
.	.	.	16a
.	.	.	8b
.	.	.	8cc#
=82	=82	=82	=82
2f#	2a	4dd	4dd
.	.	4cc	4dd#
4g	4g	4b	4ee
4r	4r	4r	8r
.	.	.	8ff#
=83	=83	=83	=83
1r	1r	1r	16gg
.	.	.	16aa
.	.	.	16bb
.	.	.	16gg
.	.	.	8ee
.	.	.	8gg
.	.	.	8ff#
.	.	.	16ee
.	.	.	16dd
.	.	.	8cc#
.	.	.	8dd
=84	=84	=84	=84
4A	4e	4c#	4ee
4B	4d	4d	4g#
4c#	4c#	4e	4a
4r	4r	4r	8r
.	.	.	8dd
=85	=85	=85	=85
2r	2r	2r	16ee
.	.	.	16ff#
.	.	.	16gg
.	.	.	16ee
.	.	.	8ff#
.	.	.	8ddd
8F#	8a	8dd	24ddd
.	.	.	24ccc#
.	.	.	24bb
8r	8r	8r	8aa
8F#	8a	8dd	24ddd
.	.	.	24ccc#
.	.	.	24bb
8r	8r	8r	8aa
=86	=86	=86	=86
8G	8d	8b	24bb
.	.	.	24aa
.	.	.	24gg
8r	8r	8r	8ff#
8A	8c#	8g	24aa
.	.	.	24gg
.	.	.	24ff#
8r	8r	8r	8ee
4D	4d	4f#	4dd
4r	4r	4r	8r
.	.	.	8a
=87	=87	=87	=87
4A	4a	4a	4aa
8.A	8.a	8.a	8.aa
16G#	16g#	16g#	16gg#
4A	4a	4a	4aa
4E	4e	4e	4ee
=88	=88	=88	=88
2F	2f	2f	2ff
8C#	8c#	8c#	8cc#
4.r	4.r	4.r	8r
.	.	.	16ff 16cc#
.	.	.	16ff 16cc#
.	.	.	16ff 16cc#
.	.	.	16ff 16cc#
=89	=89	=89	=89
2..r	2..r	2..r	8ff 8cc#
.	.	.	8r
.	.	.	16ff 16cc#
.	.	.	16ff 16cc#
.	.	.	16ff 16cc#
.	.	.	16ff 16cc#
.	.	.	8ff 8cc#
.	.	.	8r
.	.	.	16ff
.	.	.	16cc#
8c#	8cc#	8cc#	16ff
.	.	.	16cc#
=90	=90	=90	=90
4d	4dd	4dd	4dd
4A	4a	4a	4a
4.F	4.f	4.f	4.f
16E	16e	16e	16e
16D	16d	16d	16d
=91	=91	=91	=91
8AA	4c#	8a	4c#
8A	.	8A	.
8C#	4C#	2.r	8e
8A	.	.	8e
8D	4D	.	8f
8A	.	.	8f
8E	4E	.	8g#
8A	.	.	8g#
=92	=92	=92	=92
8F	4E#	8a	4a
8A	.	8A	.
8C#	4C#	2.r	16e
.	.	.	16f
8A	.	.	16g
.	.	.	16e
8D	4D	.	16f
.	.	.	16g
8A	.	.	16a
.	.	.	16f
8F	4d	.	16d
.	.	.	16e
8A	.	.	16f
.	.	.	16d
=93	=93	=93	=93
8AA	4c#	8a	4e
8A	.	8A	.
8C#	4C#	2.r	8e
8A	.	.	8e
8D	4D	.	8f
8A	.	.	8f
8E	4E	.	8g#
8A	.	.	8g#
=94	=94	=94	=94
8F	4E#	8a	4a
8A	.	8A	.
8C#	4C#	2.r	16e
.	.	.	16f
8A	.	.	16g
.	.	.	16e
8D	4D	.	16f
.	.	.	16g
8A	.	.	16a
.	.	.	16f
8F	4d	.	16d
.	.	.	16e
8A	.	.	16f
.	.	.	16d
=95	=95	=95	=95
4AA	4c#	8a	4e
.	.	8A	.
2.r	2.r	2r	3..r
.	.	8r	.
.	.	.	24r
.	.	8ff#	8aa
=96	=96	=96	=96
2..r	4.r	16dd	16ff#
.	.	16ee	16gg
.	.	16ff#	16aa
.	.	16dd	16ff#
.	.	8ee	8gg
.	8a	8cc#	8ee
.	16f#	[2a	16dd
.	16g	.	16ee
.	16a	.	16ff#
.	16f#	.	16dd
.	8g	.	8ee
8A	8e	.	8cc#
=97	=97	=97	=97
16F#	16d	8a]	8dd
16G	16e	.	.
16A	16f#	8d	4aa
16F#	16d	.	.
8G	8e	8c#	.
8E	8c#	8g	4aa
16D	8d	16f#	.
16E	.	16g	.
16F#	8d	16a	4aa
16D	.	16f#	.
8E	8c#	8g	.
8C#	8e	8e	8aa
=98	=98	=98	=98
8D	8A	8f#	16ff#
.	.	.	16gg
8D	8f#	8a	16aa
.	.	.	16ff#
8D	8f#	8a	16dd
.	.	.	16ee
8D	8f#	8a	16ff#
.	.	.	16dd
8D	8F#	8A	4a
8D	8f#	8a	.
8D	8f#	8a	4r
8D	8f#	8a	.
=99	=99	=99	=99
8D	8F	8A	16ff
.	.	.	16gg
8D	8f	8a	16aa
.	.	.	16ff
8D	8f	8a	16dd
.	.	.	16ee
8D	8f	8a	16ff
.	.	.	16dd
8D	8F	8A	4a
8D	8f	8a	.
8D	8f	8a	4r
8D	8f	8a	.
=100	=100	=100	=100
8BB-	8f	8d 8b-	16ddd
.	.	.	16ccc#
8BB-	8f	8b- 8d	16ddd
.	.	.	16ccc#
8BB-	8f	8d 8b-	16ddd
.	.	.	16ccc#
8BB-	8f	8b- 8d	16ddd
.	.	.	16ccc#
4BB-	4f	4b- 4d	4ddd
8.BB-	8.F	8.d 8.B-	8.B- 8.d
16BB-	16F	16B- 16d	16B- 16d
=101	=101	=101	=101
4BB-	4F	4B- 4d	4B- 4d
8.AA	8.F	8.cc	8.ee- 8.f
16AA	16F	16cc	16ee- 16f
4AA	4F	4cc	4ee- 4f
8.AA	8.F	8.c	8.e-
16AA	16F	16c	16e-
=102	=102	=102	=102
4AA	4F	4c	4e-
2r	2r	2r	2r
8.BB-	8.F	8.B-	8.d
16BB-	16F	16B-	16d
=103	=103	=103	=103
4BB-	4f	4B-	4d
2r	2r	2r	2r
8.B-	8.f	8.g#	8.dd
16B-	16f	16g#	16dd
=104	=104	=104	=104
4B-	4f	4g#	[6..dd
2r	2r	2r	.
.	.	.	48dd]
.	.	.	16cc#
.	.	.	16dd
.	.	.	16ee
.	.	.	8ff
.	.	.	8ff
4B-	4d	4g	8ee
.	.	.	8dd
=105	=105	=105	=105
4A	4e	4a	8cc#
.	.	.	8dd
2r	2r	2r	8ee
.	.	.	8ff
.	.	.	4.ee
4B-	4d	4g#	.
.	.	.	8dd
=106	=106	=106	=106
4A	4e	4a	8cc#
.	.	.	8dd
2r	2r	2r	8ee
.	.	.	8ff
.	.	.	4.ee
4B-	4d	4g#	.
.	.	.	8dd
=107	=107	=107	=107
4A	4e	4a	8cc#
.	.	.	8dd
2r	2r	2r	8ee
.	.	.	8ff
.	.	.	4.ee
8r	8r	8r	.
8A	8a	8a	8a
=108	=108	=108	=108
16G	16g	16g	16g
16F#	16f#	16f#	16f#
16G	16g	16g	16g
16F#	16f#	16f#	16f#
16G	16g	16g	16g
16F#	16f#	16f#	16f#
16G	16g	16g	16g
16F#	16f#	16f#	16f#
16G	16g	16g	16g
16F#	16f#	16f#	16f#
16G	16g	16g	16g
16F#	16f#	16f#	16f#
16G	16g	16g	16g
16F#	16f#	16f#	16f#
16G	16g	16g	16g
16F#	16f#	16f#	16f#
=109	=109	=109	=109
4G	4g	4g	4g
8.BB-	8.B-	8.B-	8.B-
16BB-	16B-	16B-	16B-
4AA	[2A	4.A	4.A
4C#	.	.	.
.	.	8ee	8gg
=110	=110	=110	=110
4D	4A]	4dd	16ff#
.	.	.	16gg
.	.	.	16aa
.	.	.	16ff#
4F#	2d	4r	16dd
.	.	.	16ee
.	.	.	16ff#
.	.	.	16dd
[2G	.	16b	4b
.	.	16cc#	.
.	.	16dd	.
.	.	16b	.
.	4d#	16g	4r
.	.	16a	.
.	.	16b	.
.	.	16g	.
=111	=111	=111	=111
4G]	2.e	4e	16gg
.	.	.	16aa
.	.	.	16bb
.	.	.	16gg
4G#	.	4r	16ee
.	.	.	16ff#
.	.	.	16gg
.	.	.	16ee
[2A	.	16cc#	4cc#
.	.	16dd	.
.	.	16ee	.
.	.	16cc#	.
.	4e#	16a	4r
.	.	16b	.
.	.	16cc#	.
.	.	16a	.
=112	=112	=112	=112
4A]	2.f#	4f#	16aa
.	.	.	16bb
.	.	.	16ccc#
.	.	.	16aa
4A#	.	4r	16ff#
.	.	.	16gg
.	.	.	16aa
.	.	.	16ff#
[2B	.	16dd	4dd
.	.	16ee	.
.	.	16ff#	.
.	.	16dd	.
.	4g	16b	4r
.	.	16cc#	.
.	.	16dd	.
.	.	16b	.
=113	=113	=113	=113
4B]	2.g	4g	16bb
.	.	.	16ccc#
.	.	.	16ddd
.	.	.	16bb
4B	.	4r	16gg
.	.	.	16aa
.	.	.	16bb
.	.	.	16gg
[2c#	.	16ee	4ee
.	.	16ff#	.
.	.	16gg	.
.	.	16ee	.
.	4g#	16cc#	4r
.	.	16dd	.
.	.	16ee	.
.	.	16cc#	.
=114	=114	=114	=114
4c#]	2a	4a	16ccc#
.	.	.	16ddd
.	.	.	16eee
.	.	.	16ccc#
4c#	.	2.r	16aa
.	.	.	16bb
.	.	.	16ccc#
.	.	.	16aa
16d	16f#	.	4ff#
16e	16g	.	.
16f#	16a	.	.
16d	16f#	.	.
16B	16d	.	8ddd
16c#	16e	.	.
16d	16f#	.	8dd
16B	16d	.	.
=115	=115	=115	=115
16G	16B	2b	2.gg
16A	16c#	.	.
16B	16d	.	.
16G	16B	.	.
16E	16G	.	.
16F#	16A	.	.
16G	16B	.	.
16E	16G	.	.
16C#	16E	[2a	.
16D	16F#	.	.
16E	16G	.	.
16C#	16E	.	.
16D	16F#	.	4ff#
16E	16G	.	.
16F#	16A	.	.
16D	16F#	.	.
=116	=116	=116	=116
8C#	4E	2a]	4gg
8c#	.	.	.
8d	4F#	.	8ff#
8D	.	.	8dd
8G	4G	4b	16ee
.	.	.	16ff#
8GG	.	.	16gg
.	.	.	16ee
8AA	4A	8g	8a
8A	.	8e	8cc#
=117	=117	=117	=117
8D	4D	4f#	4d
8d	.	.	.
8F#	4F#	2.r	8dd
8d	.	.	8dd
8G	4G	.	8ee
8d	.	.	8ee
8A	4A	.	8ff#
8d	.	.	8ff#
=118	=118	=118	=118
8B	4B	8dd	8gg
8d	.	8d	8gg
8A	4A	2.r	8ff#
8d	.	.	8ff#
8B	4B	.	8gg
8d	.	.	8gg
8A	4A	.	8ff#
8d	.	.	8ff#
=119	=119	=119	=119
8G	4G	8dd	8ee
8d	.	8d	8ee
8F#	4F#	2.r	8dd
8d	.	.	8dd
8G	4G	.	8ee
8d	.	.	8ee
8A	4A	.	8a
8c#	.	.	8a
=120	=120	=120	=120
8D	4D	8dd	4dd
8d	.	8d	.
8F#	8r	8r	16dd
.	.	.	16ee
8d	8f#	8ddd	16ff#
.	.	.	16dd
8G	8r	8r	16ee
.	.	.	16ff#
8d	8g	8ddd	16gg
.	.	.	16ee
8A	8r	8r	16ff#
.	.	.	16gg
8d	8a	8ddd	16aa
.	.	.	16ff#
=121	=121	=121	=121
8B	8r	8r	16gg
.	.	.	16aa
8d	8b	8ddd	16bb
.	.	.	16gg
8A	8r	8r	16ff#
.	.	.	16gg
8d	8a	8ddd	16aa
.	.	.	16ff#
8B	8r	8r	16gg
.	.	.	16aa
8d	8b	8ddd	16bb
.	.	.	16gg
8A	8r	8r	16ff#
.	.	.	16gg
8d	8a	8ddd	16aa
.	.	.	16ff#
=122	=122	=122	=122
8G	8r	8r	16ee
.	.	.	16ff#
8d	8g	8ddd	16gg
.	.	.	16ee
8F#	8r	8r	16dd
.	.	.	16ee
8d	8f#	8ddd	16ff#
.	.	.	16dd
8G	8r	8r	16ee
.	.	.	16ff#
8d	8g	8ddd	16gg
.	.	.	16ee
8A	8r	8r	16cc#
.	.	.	16dd
8c#	8a	8ddd	16ee
.	.	.	16cc#
=123	=123	=123	=123
4D	4d	8r	4dd
.	.	8ddd	.
2.r	2.r	8ff#	8aa
.	.	8ee#	8gg#
.	.	8ff#	8aa
.	.	8ee#	8gg#
.	.	8ff#	8aa
.	.	8ee#	8gg#
=124	=124	=124	=124
8d	8d	8ff#	8aa
8D	8D	8r	8r
4r	4r	16ff#	16aa
.	.	16ee#	16gg#
.	.	16ff#	16aa
.	.	16ee#	16gg#
8d	8d	8ff#	8aa
8D	8D	8r	8r
4r	4r	8ff#	8aa
.	.	8gg	8bb
=125	=125	=125	=125
8d#	8d#	2aa	2ccc
8d#	8d#	.	.
8d#	8d#	.	.
8d#	8d#	.	.
8d#	8d#	4gg	4bb
8d#	8d#	.	.
8d#	8d#	4ff#	4aa
8d#	8d#	.	.
=126	=126	=126	=126
8e	8e	2.ee	2.gg
8e	8e	.	.
8e	8e	.	.
8e	8e	.	.
8A#	8A#	.	.
8A#	8A#	.	.
8A#	8A#	8dd	8ff#
8A#	8A#	8cc#	8ee
=127	=127	=127	=127
8d	8d	8ff#	8aa
8D	8D	8r	8r
4r	2r	16ff#	16aa
.	.	16ee#	16gg#
.	.	16ff#	16aa
.	.	16ee#	16gg#
8d	.	8ff#	8aa
8D	.	8r	8r
4r	8a	8dd	8ff#
.	8a	8dd	8ff#
=128	=128	=128	=128
8d	8a	8dd	8ff#
8D	8r	8r	8r
4r	8a	8f#	8dd
.	8a	8f#	8dd
8d	8a	8f#	8dd
8D	8r	8r	8r
4r	8d	8A	8f#
.	8d	8A	8f#
=129	=129	=129	=129
8D	2.B	2.B	2.g
8C#	.	.	.
8D	.	.	.
8C#	.	.	.
8D	.	.	.
8C#	.	.	.
8D	8G	8c#	8e
8DD	8E	8e	8c#
=130	=130	=130	=130
[2DD	2G	2e	2c#
4DD]	4F#	4d	4d
4r	4r	4r	4r
==	==	==	==
*-	*-	*-	*-
!!!RWG1: This file contains only pitch and duration data.
!!!RWG2: Transposing instruments are not transposed.
!!!RWG3: Spines may have incompatible meters.
!!!RWG4: Durations of rests and tied notes may be interpreted.
!!!RWG: Key is interpreted using the Humdrum key tool.
!!!GTL: 6 Divertimentos ("Sun")
!!!AFT: stage1
!!!END: 1997/04/15
!!!KEY: 3538034720
!!!EMD: Converted from MuseData to Humdrum Dec 16, 2000, by Andreas Kornstaedt using muse2kern.
!!!EMD: Manual editing by Craig Sapp, Nov 2001
